static/img/kroki/4cdb6d46d722d211f4e11b417b67f21e.svg

<?xml version="1.0" encoding="us-ascii" standalone="no"?><svg xmlns="http://www.w3.org/2000/svg" xmlns:xlink="http://www.w3.org/1999/xlink" contentStyleType="text/css" height="374px" preserveAspectRatio="none" style="width:425px;height:374px;" version="1.1" viewBox="0 0 425 374" width="425px" zoomAndPan="magnify"><defs/><g><!--class azure_cosmos_db_restorable_gremlin_graph--><g id="elem_azure_cosmos_db_restorable_gremlin_graph"><rect codeLine="23" fill="#3D176E" height="39.7891" id="azure_cosmos_db_restorable_gremlin_graph" rx="2.5" ry="2.5" style="stroke:#000D19;stroke-width:0.5;" width="411" x="7" y="328.58"/><ellipse cx="22" cy="348.4745" fill="#ADD1B2" rx="11" ry="11" style="stroke:#181818;stroke-width:1.0;"/><path d="M24.9688,354.1152 Q24.3906,354.412 23.75,354.5527 Q23.1094,354.7089 22.4063,354.7089 Q19.9063,354.7089 18.5781,353.0683 Q17.2656,351.412 17.2656,348.287 Q17.2656,345.162 18.5781,343.5058 Q19.9063,341.8495 22.4063,341.8495 Q23.1094,341.8495 23.75,342.0058 Q24.4063,342.162 24.9688,342.4589 L24.9688,345.1777 Q24.3438,344.5995 23.75,344.3339 Q23.1563,344.0527 22.5313,344.0527 Q21.1875,344.0527 20.5,345.1308 Q19.8125,346.1933 19.8125,348.287 Q19.8125,350.3808 20.5,351.4589 Q21.1875,352.5214 22.5313,352.5214 Q23.1563,352.5214 23.75,352.2558 Q24.3438,351.9745 24.9688,351.3964 L24.9688,354.1152 Z " fill="#000000"/><text fill="#D9B8FF" font-family="Helvetica" font-size="17" lengthAdjust="spacing" textLength="369" x="41" y="354.3598">azure_cosmos_db_restorable_gremlin_graph</text></g><!--class microsoft_resource--><g id="elem_microsoft_resource"><rect codeLine="26" fill="#3D176E" height="39.7891" id="microsoft_resource" rx="2.5" ry="2.5" style="stroke:#000D19;stroke-width:0.5;" width="200" x="112.5" y="167.79"/><ellipse cx="127.5" cy="187.6845" fill="#ADD1B2" rx="11" ry="11" style="stroke:#181818;stroke-width:1.0;"/><path d="M130.4688,193.3252 Q129.8906,193.622 129.25,193.7627 Q128.6094,193.9189 127.9063,193.9189 Q125.4063,193.9189 124.0781,192.2783 Q122.7656,190.622 122.7656,187.497 Q122.7656,184.372 124.0781,182.7158 Q125.4063,181.0595 127.9063,181.0595 Q128.6094,181.0595 129.25,181.2158 Q129.9063,181.372 130.4688,181.6689 L130.4688,184.3877 Q129.8438,183.8095 129.25,183.5439 Q128.6563,183.2627 128.0313,183.2627 Q126.6875,183.2627 126,184.3408 Q125.3125,185.4033 125.3125,187.497 Q125.3125,189.5908 126,190.6689 Q126.6875,191.7314 128.0313,191.7314 Q128.6563,191.7314 129.25,191.4658 Q129.8438,191.1845 130.4688,190.6064 L130.4688,193.3252 Z " fill="#000000"/><text fill="#D9B8FF" font-family="Helvetica" font-size="17" lengthAdjust="spacing" textLength="158" x="146.5" y="193.5698">microsoft_resource</text></g><!--class resource--><g id="elem_resource"><rect codeLine="29" fill="#3D176E" height="39.7891" id="resource" rx="2.5" ry="2.5" style="stroke:#000D19;stroke-width:0.5;" width="113" x="156" y="7"/><ellipse cx="171" cy="26.8945" fill="#ADD1B2" rx="11" ry="11" style="stroke:#181818;stroke-width:1.0;"/><path d="M173.9688,32.5352 Q173.3906,32.832 172.75,32.9727 Q172.1094,33.1289 171.4063,33.1289 Q168.9063,33.1289 167.5781,31.4883 Q166.2656,29.832 166.2656,26.707 Q166.2656,23.582 167.5781,21.9258 Q168.9063,20.2695 171.4063,20.2695 Q172.1094,20.2695 172.75,20.4258 Q173.4063,20.582 173.9688,20.8789 L173.9688,23.5977 Q173.3438,23.0195 172.75,22.7539 Q172.1563,22.4727 171.5313,22.4727 Q170.1875,22.4727 169.5,23.5508 Q168.8125,24.6133 168.8125,26.707 Q168.8125,28.8008 169.5,29.8789 Q170.1875,30.9414 171.5313,30.9414 Q172.1563,30.9414 172.75,30.6758 Q173.3438,30.3945 173.9688,29.8164 L173.9688,32.5352 Z " fill="#000000"/><text fill="#D9B8FF" font-family="Helvetica" font-size="17" lengthAdjust="spacing" textLength="71" x="190" y="32.7798">resource</text></g><!--reverse link microsoft_resource to azure_cosmos_db_restorable_gremlin_graph--><g id="link_microsoft_resource_azure_cosmos_db_restorable_gremlin_graph"><path codeLine="32" d="M212.5,225.84 C212.5,256.36 212.5,297.69 212.5,328.25 " fill="none" id="microsoft_resource-backto-azure_cosmos_db_restorable_gremlin_graph" style="stroke:#FFAF37;stroke-width:2.0;"/><polygon fill="none" points="212.5,207.84,206.5,225.84,218.5,225.84,212.5,207.84" style="stroke:#FFAF37;stroke-width:2.0;"/></g><!--reverse link resource to microsoft_resource--><g id="link_resource_microsoft_resource"><path codeLine="33" d="M212.5,65.05 C212.5,95.57 212.5,136.9 212.5,167.46 " fill="none" id="resource-backto-microsoft_resource" style="stroke:#FFAF37;stroke-width:2.0;"/><polygon fill="none" points="212.5,47.05,206.5,65.05,218.5,65.05,212.5,47.05" style="stroke:#FFAF37;stroke-width:2.0;"/></g><!--SRC=[ZP1FRy8m3CNl_HIHE2F1q0P8kp2aQRkWQUnUkOb3epPnvQH3iEsxZmusXPO_Erdo-zdlsRbHAD1MOICisWpP9xumhW86AsRCj9vJIInwMeCUZTlY8xbm5LY0HV64vJi68w5DlEL65Wwz5pUHz02oM37LJktN1mRdTnAw457p4hoVXS0cgmD6OTGqcsZT9jjBUoCr7DzX1oDMo0TaC1YeuRIDNBMwUFSViJHR5CFuQGiAs8dPiVYXBgPiY2Xavz1V_Mp65r3Ak9MuZNgl-qpia8_wonmKhHjQG-bZ6n-GaSAcmdddAfnEb1wVX9_FmObiNYTWMpEcahmbdweiPVI16B8IqnMZBOtRLQXoyP4aNuSPQoIJ9nqQccgM6Al7lHFi_MU_t_-tSTAQwovClW40]--></g></svg>

<svg xmlns="http://www.w3.org/2000/svg" width="425" height="374" viewBox="0 0 425 374"><rect width="411" height="39.789" x="7" y="328.58" fill="#3D176E" rx="2.5" ry="2.5" style="stroke:#000d19;stroke-width:.5"/><circle cx="22" cy="348.474" r="11" fill="#ADD1B2" style="stroke:#181818;stroke-width:1"/><path d="M24.969 354.115q-.578.297-1.219.438-.64.156-1.344.156-2.5 0-3.828-1.64-1.312-1.657-1.312-4.782t1.312-4.781q1.328-1.656 3.828-1.656.703 0 1.344.156.656.156 1.219.453v2.719q-.625-.579-1.219-.844-.594-.281-1.219-.281-1.343 0-2.031 1.078-.687 1.062-.687 3.156t.687 3.172q.688 1.062 2.031 1.062.625 0 1.219-.265.594-.281 1.219-.86z"/><text x="41" y="354.36" fill="#D9B8FF" font-family="Helvetica" font-size="17" textLength="369">azure_cosmos_db_restorable_gremlin_graph</text><rect width="200" height="39.789" x="112.5" y="167.79" fill="#3D176E" rx="2.5" ry="2.5" style="stroke:#000d19;stroke-width:.5"/><circle cx="127.5" cy="187.685" r="11" fill="#ADD1B2" style="stroke:#181818;stroke-width:1"/><path d="M130.469 193.325q-.578.297-1.219.438-.64.156-1.344.156-2.5 0-3.828-1.64-1.312-1.657-1.312-4.782t1.312-4.781q1.328-1.656 3.828-1.656.703 0 1.344.156.656.156 1.219.453v2.719q-.625-.578-1.219-.844-.594-.281-1.219-.281-1.344 0-2.031 1.078-.687 1.062-.687 3.156t.687 3.172q.688 1.062 2.031 1.062.625 0 1.219-.265.594-.281 1.219-.86z"/><text x="146.5" y="193.57" fill="#D9B8FF" font-family="Helvetica" font-size="17" textLength="158">microsoft_resource</text><rect width="113" height="39.789" x="156" y="7" fill="#3D176E" rx="2.5" ry="2.5" style="stroke:#000d19;stroke-width:.5"/><circle cx="171" cy="26.895" r="11" fill="#ADD1B2" style="stroke:#181818;stroke-width:1"/><path d="M173.969 32.535q-.578.297-1.219.438-.64.156-1.344.156-2.5 0-3.828-1.64-1.312-1.657-1.312-4.782t1.312-4.781q1.328-1.656 3.828-1.656.703 0 1.344.156.656.156 1.219.453v2.719q-.625-.578-1.219-.844-.594-.281-1.219-.281-1.344 0-2.031 1.078-.687 1.062-.687 3.156t.687 3.172q.688 1.062 2.031 1.062.625 0 1.219-.265.594-.281 1.219-.86z"/><text x="190" y="32.78" fill="#D9B8FF" font-family="Helvetica" font-size="17" textLength="71">resource</text><path fill="none" d="M212.5 225.84v102.41m0-120.41-6 18h12zm0-142.79v102.41m0-120.41-6 18h12z" style="stroke:#ffaf37;stroke-width:2"/></svg>
